img/logo.svg

<svg width="248" height="16" viewBox="0 0 248 16" fill="none" xmlns="http://www.w3.org/2000/svg">
<path fill-rule="evenodd" clip-rule="evenodd" d="M137.965 9H146.546V6.65049H137.965V9ZM146.857 15.8058V13.4563H138.509C138.033 13.4563 137.673 13.4369 137.498 13.2621C137.362 13.1456 137.275 12.9029 137.275 12.6602V3.50485C137.275 3.28155 137.275 2.97087 137.518 2.74757C137.741 2.54369 138.062 2.52427 138.325 2.52427H146.77V0.174757H136.74C136.138 0.174757 135.38 0.223301 134.865 0.776699C134.525 1.16505 134.33 1.78641 134.33 2.40777V13.4854C134.33 14.0874 134.369 14.7961 134.904 15.3107C135.419 15.8058 136.021 15.8058 136.692 15.8058H146.857ZM130.394 0.174757H127.537V11.699C127.537 11.8058 127.537 12.0777 127.284 12.0777C127.09 12.0777 127.041 11.8544 126.934 11.699L120.297 1.2233C119.869 0.563107 119.198 0 117.818 0C116.341 0 115.428 0.776699 115.428 2.1165V15.8058H118.285V4.3301C118.285 4.01942 118.489 3.8835 118.596 3.8835C118.644 3.8835 118.732 3.93204 118.955 4.26214L125.545 14.6699C126.235 15.7573 127.129 15.9806 128.071 15.9806C129.345 15.9806 130.394 15.3592 130.394 13.7767V0.174757ZM98.9157 7.99029C98.9157 5.60194 99.2656 4.37864 99.8778 3.61165C100.791 2.47573 102.269 2.33981 103.892 2.33981C105.485 2.33981 107.021 2.47573 107.944 3.61165C108.43 4.2233 108.897 5.29126 108.897 7.99029C108.897 10.5146 108.45 11.699 107.944 12.3398C107.002 13.5243 105.505 13.6408 103.892 13.6408C102.269 13.6408 100.791 13.5243 99.8778 12.3398C99.3627 11.699 98.9157 10.534 98.9157 7.99029ZM103.921 0C102.016 0 99.4308 0 97.6814 1.65049C95.9807 3.26214 95.8738 5.87379 95.8738 7.99029C95.8738 9.75728 95.8738 12.5922 97.6814 14.3301C99.4016 15.9806 102.065 15.9806 103.921 15.9806C105.728 15.9806 108.45 15.9806 110.15 14.3301C111.764 12.767 111.939 10.0485 111.939 7.99029C111.939 5.94175 111.783 3.21359 110.15 1.65049C108.43 0 105.767 0 103.921 0ZM87.8268 15.8058V2.52427H93.9495V0.174757H78.7788V2.52427H84.8821V15.8058H87.8268ZM64.3467 15.8058H73.9584C74.9885 15.8058 75.9701 15.6893 76.7476 14.6893C77.3988 13.8641 77.5348 12.767 77.5348 11.7864C77.5348 11.0485 77.4376 9.6699 76.5046 8.7767C76.0382 8.3301 75.319 7.99029 74.2694 7.66019L68.5451 5.84466C67.3012 5.4466 67.0971 4.7767 67.0971 4.08738C67.0971 3.79612 67.1165 3.23301 67.4955 2.8835C67.8551 2.54369 68.3216 2.52427 68.7298 2.52427H76.7282V0.174757H67.7191C66.961 0.174757 65.96 0.291262 65.1534 1.04854C64.2592 1.87379 64.1426 3.00971 64.1426 3.95146C64.1426 4.82524 64.2398 6.04854 64.9493 6.8932C65.581 7.66019 66.5625 7.99029 66.8055 8.05825L72.9768 10C74.3374 10.4272 74.4929 11.1359 74.4929 11.767C74.4929 12.301 74.4249 13.4563 73.0157 13.4563H64.3467V15.8058ZM52.665 9H61.2465V6.65049H52.665V9ZM61.5575 15.8058V13.4563H53.1995C52.733 13.4563 52.3734 13.4369 52.1985 13.2621C52.0624 13.1456 51.975 12.9029 51.975 12.6602V3.50485C51.975 3.28155 51.975 2.97087 52.2179 2.74757C52.4414 2.54369 52.7524 2.52427 53.0246 2.52427H61.47V0.174757H51.4307C50.8282 0.174757 50.0701 0.223301 49.555 0.776699C49.2246 1.16505 49.0205 1.78641 49.0205 2.40777V13.4854C49.0205 14.0874 49.0691 14.7961 49.6036 15.3107C50.1187 15.8058 50.7213 15.8058 51.3918 15.8058H61.5575ZM47.0962 15.8058L39.7004 9.2233C39.2825 8.83495 38.7868 8.43689 38.7868 7.74757C38.7868 7.21359 39.1659 6.92233 39.5255 6.58252L46.2702 0.174757H42.6354L36.7071 6.02913C36.2892 6.4466 35.949 7.16505 35.949 7.76699C35.949 8.30097 36.1531 9.08738 36.9306 9.79612L43.3643 15.8058H47.0962ZM32.1296 15.8058H35.0743V0.174757H32.1296V15.8058ZM18.6402 11.8544H24.8212L24.0243 9.75728H19.4469L18.6402 11.8544ZM13.2756 15.8058H16.3758L21.2934 3.38835C21.3809 3.16505 21.5364 2.74757 21.7405 2.74757C21.9445 2.74757 22.1 3.16505 22.1875 3.38835L27.1051 15.8058H30.2053L24.3062 1.76699C23.7522 0.446602 23.0816 0 21.7405 0C20.3313 0 19.7287 0.446602 19.1748 1.76699L13.2756 15.8058ZM12.4689 15.8058V13.4563H3.88743C3.42094 13.4563 3.23629 13.3495 3.14882 13.2816C2.92529 13.0777 2.95445 12.7864 2.95445 12.6117V0.174757H0V14.1068C0 14.7767 0.310995 15.2039 0.553959 15.3981C0.913546 15.6893 1.49666 15.8058 2.01175 15.8058H12.4689ZM236.9 7.93204V3.46602C236.9 3.19417 236.9 2.92233 237.094 2.72816C237.318 2.50485 237.59 2.52427 237.794 2.52427H242.556C243.042 2.52427 243.878 2.54369 244.393 3.05825C244.879 3.57282 244.947 4.51456 244.947 5.20388C244.947 5.80583 244.898 6.81553 244.432 7.34951C243.917 7.93204 243.159 7.93204 242.508 7.93204H236.9ZM236.9 15.8252V10.2816H244.228C245.151 10.2816 246.045 9.99029 246.628 9.51456C247.853 8.51456 247.989 6.50485 247.989 5.23301C247.989 3.91262 247.882 2.14563 246.803 1.1165C245.841 0.174757 244.519 0.174757 243.693 0.174757H236.249C235.714 0.174757 234.995 0.271845 234.48 0.786408C233.946 1.32039 233.946 1.94175 233.946 2.52427V15.8252H236.9ZM223.207 13.6505C222.293 13.6505 220.952 13.5437 220.126 12.6505C219.387 11.8447 219.358 10.7961 219.358 9.92233V0.174757H216.404V10.3204C216.404 11.6408 216.588 13.1165 217.774 14.3204C219.339 15.932 221.778 16 223.207 16C224.635 16 227.075 15.932 228.639 14.3204C229.825 13.1165 230.01 11.6408 230.01 10.3204V0.174757H227.055V9.92233C227.055 10.699 227.036 11.8641 226.317 12.6505C225.51 13.5437 224.062 13.6505 223.207 13.6505ZM199.882 8C199.882 5.61165 200.242 4.37864 200.844 3.62136C201.758 2.47573 203.235 2.34951 204.868 2.34951C206.452 2.34951 207.997 2.47573 208.92 3.62136C209.406 4.2233 209.882 5.29126 209.882 8C209.882 10.5243 209.435 11.7087 208.92 12.3592C207.978 13.5437 206.481 13.6505 204.868 13.6505C203.235 13.6505 201.758 13.5437 200.844 12.3592C200.329 11.7087 199.882 10.5437 199.882 8ZM204.887 0C202.992 0 200.397 0 198.648 1.65049C196.947 3.26214 196.84 5.87379 196.84 8C196.84 9.76699 196.84 12.6019 198.648 14.3495C200.368 16 203.031 16 204.887 16C206.704 16 209.435 16 211.126 14.3495C212.74 12.7864 212.924 10.0583 212.924 8C212.924 5.94175 212.759 3.21359 211.126 1.65049C209.406 0 206.743 0 204.887 0ZM179.619 15.8252H182.573V3.64078C182.573 3.3301 182.573 3.03884 182.884 2.76699C183.127 2.54369 183.351 2.52427 183.662 2.52427H188.453C188.919 2.52427 189.639 2.52427 190.105 2.99029C190.416 3.31068 190.669 3.93204 190.669 5.16505C190.669 5.69903 190.62 6.81553 190.309 7.31068C189.901 7.93204 189.211 8 188.696 8H185.741C184.896 8 184.429 8.4466 184.429 9.06796V9.42718C184.429 9.87379 184.847 10.4369 185.168 10.7476L190.309 15.8252H194.022L188.074 10.301V10.1942H190.086C191.874 10.1942 192.632 9.33981 193.04 8.58252C193.662 7.41748 193.711 6.19417 193.711 5.04854C193.711 3.91262 193.662 2.67961 192.923 1.61165C192.01 0.242718 190.669 0.174757 189.571 0.174757H182.146C181.562 0.174757 180.824 0.271845 180.26 0.805825C179.638 1.40777 179.619 2.19417 179.619 2.83495V15.8252ZM176.13 8H169.103V10.1942H173.175V12.4272C173.175 12.6699 173.175 12.9806 172.932 13.233C172.68 13.4757 172.417 13.4757 172.145 13.4757H168.326C167.072 13.4757 165.974 13.1359 165.323 11.8447C165.08 11.3495 164.701 10.2816 164.701 8C164.701 5.74757 165.08 4.71845 165.352 4.2233C165.954 3.12621 167.111 2.52427 168.812 2.52427H175.77V0.174757H167.986C166.489 0.174757 165.167 0.514563 164.205 1.13592C161.902 2.64078 161.659 5.51456 161.659 8.08738C161.659 10.2816 161.814 13 163.719 14.5922C164.429 15.1942 165.614 15.8252 167.364 15.8252H174.031C174.478 15.8252 175.148 15.6893 175.547 15.3495C175.838 15.1068 176.13 14.6117 176.13 13.8058V8Z" fill="black"/>
</svg>

<svg width="248" height="16" fill="none" xmlns="http://www.w3.org/2000/svg"><path fill-rule="evenodd" clip-rule="evenodd" d="M137.965 9h8.581V6.65h-8.581V9zm8.892 6.806v-2.35h-8.348c-.476 0-.836-.02-1.011-.194-.136-.116-.223-.36-.223-.602V3.505c0-.223 0-.534.243-.757.223-.204.544-.224.807-.224h8.445V.174h-10.03c-.602 0-1.36.05-1.875.603-.34.388-.535 1.01-.535 1.63v11.078c0 .602.039 1.311.574 1.826.515.495 1.117.495 1.788.495h10.165zM130.394.175h-2.857v11.524c0 .107 0 .379-.253.379-.194 0-.243-.224-.35-.379l-6.637-10.476C119.869.563 119.198 0 117.818 0c-1.477 0-2.39.777-2.39 2.116v13.69h2.857V4.33c0-.31.204-.446.311-.446.048 0 .136.048.359.378l6.59 10.408c.69 1.087 1.584 1.31 2.526 1.31 1.274 0 2.323-.62 2.323-2.203V.175zM98.916 7.99c0-2.388.35-3.611.962-4.378.913-1.136 2.391-1.272 4.014-1.272 1.593 0 3.129.136 4.052 1.272.486.611.953 1.68.953 4.378 0 2.525-.447 3.709-.953 4.35-.942 1.184-2.439 1.3-4.052 1.3-1.623 0-3.101-.116-4.014-1.3-.515-.641-.962-1.806-.962-4.35zM103.92 0c-1.905 0-4.49 0-6.24 1.65-1.7 1.612-1.807 4.224-1.807 6.34 0 1.767 0 4.602 1.807 6.34 1.72 1.65 4.384 1.65 6.24 1.65 1.807 0 4.529 0 6.229-1.65 1.614-1.563 1.789-4.281 1.789-6.34 0-2.048-.156-4.776-1.789-6.34C108.43 0 105.767 0 103.921 0zM87.827 15.806V2.524h6.123V.174H78.779v2.35h6.103v13.282h2.945zm-23.48 0h9.611c1.03 0 2.012-.117 2.79-1.117.65-.825.787-1.922.787-2.903 0-.737-.097-2.116-1.03-3.01-.467-.446-1.186-.786-2.236-1.116l-5.724-1.815c-1.244-.398-1.448-1.068-1.448-1.758 0-.29.02-.854.399-1.203.36-.34.826-.36 1.234-.36h7.998V.174H67.72c-.758 0-1.759.117-2.566.875-.894.825-1.01 1.96-1.01 2.902 0 .874.097 2.098.806 2.942.632.767 1.614 1.097 1.856 1.165L72.977 10c1.36.427 1.516 1.136 1.516 1.767 0 .534-.068 1.69-1.477 1.69h-8.67v2.349zM52.665 9h8.581V6.65h-8.581V9zm8.892 6.806v-2.35H53.2c-.466 0-.826-.02-1-.194-.137-.116-.224-.36-.224-.602V3.505c0-.223 0-.534.243-.757.223-.204.534-.224.807-.224h8.445V.174H51.43c-.602 0-1.36.05-1.875.603-.33.388-.535 1.01-.535 1.63v11.078c0 .602.05 1.311.584 1.826.515.495 1.117.495 1.788.495h10.165zm-14.46 0L39.7 9.223c-.418-.388-.913-.786-.913-1.475 0-.534.379-.826.739-1.165L46.27.175h-3.635l-5.928 5.854c-.418.418-.758 1.136-.758 1.738 0 .534.204 1.32.982 2.03l6.433 6.009h3.732zm-14.967 0h2.944V.175H32.13v15.63zm-13.49-3.952h6.181l-.797-2.097h-4.577l-.807 2.097zm-5.364 3.952h3.1l4.917-12.418c.088-.223.243-.64.448-.64.204 0 .359.417.447.64l4.917 12.418h3.1L24.306 1.767C23.752.447 23.082 0 21.74 0c-1.409 0-2.011.447-2.565 1.767l-5.9 14.039zm-.807 0v-2.35H3.887c-.466 0-.65-.106-.738-.174-.224-.204-.195-.496-.195-.67V.175H0v13.932c0 .67.311 1.097.554 1.291.36.291.943.408 1.458.408h10.457zM236.9 7.932V3.466c0-.272 0-.544.194-.738.224-.223.496-.204.7-.204h4.762c.486 0 1.322.02 1.837.534.486.515.554 1.457.554 2.146 0 .602-.049 1.612-.515 2.146-.515.582-1.273.582-1.924.582H236.9zm0 7.893v-5.543h7.328c.923 0 1.817-.292 2.4-.767 1.225-1 1.361-3.01 1.361-4.282 0-1.32-.107-3.087-1.186-4.116-.962-.942-2.284-.942-3.11-.942h-7.444c-.535 0-1.254.097-1.769.611-.534.534-.534 1.156-.534 1.738v13.301h2.954zm-13.693-2.175c-.914 0-2.255-.106-3.081-1-.739-.805-.768-1.854-.768-2.728V.175h-2.954V10.32c0 1.32.184 2.796 1.37 4 1.565 1.612 4.004 1.68 5.433 1.68 1.428 0 3.868-.068 5.432-1.68 1.186-1.204 1.371-2.68 1.371-4V.175h-2.955v9.747c0 .777-.019 1.942-.738 2.728-.807.894-2.255 1-3.11 1zM199.882 8c0-2.388.36-3.621.962-4.379.914-1.145 2.391-1.271 4.024-1.271 1.584 0 3.129.126 4.052 1.271.486.602.962 1.67.962 4.379 0 2.524-.447 3.709-.962 4.36-.942 1.184-2.439 1.29-4.052 1.29-1.633 0-3.11-.106-4.024-1.29-.515-.651-.962-1.816-.962-4.36zm5.005-8c-1.895 0-4.49 0-6.239 1.65-1.701 1.612-1.808 4.224-1.808 6.35 0 1.767 0 4.602 1.808 6.35 1.72 1.65 4.383 1.65 6.239 1.65 1.817 0 4.548 0 6.239-1.65 1.614-1.564 1.798-4.292 1.798-6.35s-.165-4.786-1.798-6.35C209.406 0 206.743 0 204.887 0zm-25.268 15.825h2.954V3.641c0-.31 0-.602.311-.874.243-.223.467-.243.778-.243h4.791c.466 0 1.186 0 1.652.466.311.32.564.942.564 2.175 0 .534-.049 1.65-.36 2.146-.408.621-1.098.689-1.613.689h-2.955c-.845 0-1.312.447-1.312 1.068v.36c0 .446.418 1.009.739 1.32l5.141 5.077h3.713l-5.948-5.524v-.107h2.012c1.788 0 2.546-.854 2.954-1.611.622-1.166.671-2.389.671-3.534 0-1.136-.049-2.37-.788-3.437-.913-1.37-2.254-1.437-3.352-1.437h-7.425c-.584 0-1.322.097-1.886.63-.622.603-.641 1.39-.641 2.03v12.99zM176.13 8h-7.027v2.194h4.072v2.233c0 .243 0 .554-.243.806-.252.243-.515.243-.787.243h-3.819c-1.254 0-2.352-.34-3.003-1.631-.243-.495-.622-1.563-.622-3.845 0-2.252.379-3.282.651-3.777.602-1.097 1.759-1.699 3.46-1.699h6.958V.174h-7.784c-1.497 0-2.819.34-3.781.962-2.303 1.505-2.546 4.379-2.546 6.951 0 2.195.155 4.913 2.06 6.505.71.602 1.895 1.233 3.645 1.233h6.667c.447 0 1.117-.136 1.516-.475.291-.243.583-.738.583-1.544V8z" fill="#000"/></svg>
